X: 34914
T: Rock Solid
R: jig
M: 6/8
K: Gmajor
A3 ABA|GEE E2G|DEG ~A3|BAB GED|
dBG A2e|dBG EFG|~A3 ABA|1 GEE EFG:|2 GEE E2G||
F3 FED|GAB d3|dBG ABe|dBA BGE|
~F3 FED|GAB d3|dBG AGA|GEE E2G|
F3 FED|GAB d3|dBG ABe|dBA BGE|
~F3 GED|GBd Bde|dBG AGA|GEE EFG||

